docs/.gitbook/assets/icon-cog-16@light.svg

<svg width="32" height="32" viewBox="0 0 16 16" fill="none" xmlns="http://www.w3.org/2000/svg">
<rect x="0" y="0" width="16" height="16" fill="#fff"/>
<path fill-rule="evenodd" clip-rule="evenodd" d="M7.20495 1C6.72827 1 6.31785 1.33646 6.22437 1.80388L5.97307 3.06039L4.90225 2.41928C4.51725 2.18879 4.02585 2.24296 3.70032 2.5518L2.6244 3.57252C2.2934 3.88654 2.21692 4.38479 2.43849 4.78363L3.0954 5.96607L2.78548 6.02805L1.80389 6.22437C1.33647 6.31786 1.00001 6.72827 1.00001 7.20495L1 8.17743L1 8.77375C1 9.28751 1.3893 9.71767 1.9005 9.76879L3.09248 9.88799L2.40976 11.2534C2.21862 11.6357 2.29168 12.0969 2.5907 12.4013L3.54782 13.3941L3.54773 13.3942L3.55744 13.4039C3.75071 13.5972 3.98856 13.6701 4.17398 13.6876C4.3611 13.7052 4.57885 13.6753 4.77908 13.564L5.66941 13.0694L5.95074 12.9131L6.18307 14.1803C6.27013 14.6551 6.68395 15 7.16669 15L8.83334 15C9.31607 15 9.72989 14.6551 9.81694 14.1803L10.0493 12.9131L11.2209 13.564C11.6112 13.7809 12.098 13.7127 12.4137 13.397L13.4029 12.4077C13.7073 12.1034 13.7827 11.6384 13.5902 11.2534L12.9194 11.5888L13.5902 11.2534L12.9075 9.88799L14.0995 9.76879C14.6107 9.71767 15 9.28751 15 8.77375V7.98935V7.20495C15 6.72827 14.6635 6.31785 14.1961 6.22437L12.9046 5.96607L13.564 4.77908C13.7809 4.38878 13.7127 3.90204 13.397 3.58633L12.9053 3.09467L12.4137 2.60301C12.098 2.2873 11.6112 2.21913 11.2209 2.43596L10.0339 3.0954L9.97195 2.78548L9.77563 1.80388C9.68215 1.33646 9.27173 1 8.79505 1H8H7.20495ZM7.30494 4.04958L7.61485 2.5H8H8.38515L8.50108 3.07965L8.6974 4.06125C8.83027 4.72559 9.57138 5.06831 10.1636 4.73929L11.6197 3.93036L11.8447 4.15533L12.0696 4.3803L11.2607 5.83638C10.9317 6.42862 11.2744 7.16974 11.9388 7.3026L13.5 7.61485V7.98935V8.32126L12.0363 8.46763C11.3394 8.53732 10.9282 9.2834 11.2414 9.90988L12.0874 11.6019L11.6197 12.0696L10.1687 11.2635C9.57059 10.9312 8.82287 11.2843 8.69948 11.9574L8.41667 13.5L7.58334 13.5L7.30052 11.9574C7.17713 11.2843 6.42941 10.9312 5.83127 11.2635L4.94094 11.7582L4.3635 12.079L3.9095 11.608L4.75859 9.90988C5.07182 9.28341 4.66061 8.53732 3.96366 8.46763L2.5 8.32126L2.5 8.17744L2.50001 7.61485L3.07966 7.49892L4.06125 7.3026L3.91416 6.56717L4.06125 7.3026C4.72559 7.16973 5.06831 6.42862 4.73929 5.83638L3.93796 4.39397L4.45736 3.90122L5.81068 4.71145C6.40366 5.06646 7.1694 4.72728 7.30494 4.04958ZM7.5 8C7.5 7.72386 7.72386 7.5 8 7.5C8.27614 7.5 8.5 7.72386 8.5 8C8.5 8.27614 8.27614 8.5 8 8.5C7.72386 8.5 7.5 8.27614 7.5 8ZM8 6C6.89543 6 6 6.89543 6 8C6 9.10457 6.89543 10 8 10C9.10457 10 10 9.10457 10 8C10 6.89543 9.10457 6 8 6Z" fill="#000"/>
</svg>

<svg xmlns="http://www.w3.org/2000/svg" width="32" height="32" fill="none" viewBox="0 0 16 16"><path fill="#fff" d="M0 0h16v16H0z"/><path fill="#000" fill-rule="evenodd" d="M7.205 1a1 1 0 0 0-.98.804L5.972 3.06l-1.07-.64a1 1 0 0 0-1.203.132l-1.076 1.02a1 1 0 0 0-.186 1.212l.657 1.182-.31.062-.981.196A1 1 0 0 0 1 7.205v1.569a1 1 0 0 0 .9.995l1.192.119-.682 1.365a1 1 0 0 0 .18 1.148l.958.993.01.01c.193.193.43.266.616.284a1.05 1.05 0 0 0 .605-.124l.89-.495.282-.156.232 1.267a1 1 0 0 0 .984.82h1.666a1 1 0 0 0 .984-.82l.232-1.267 1.172.651a1 1 0 0 0 1.193-.167l.989-.99a1 1 0 0 0 .187-1.154l-.67.336.67-.336-.682-1.365 1.192-.12a1 1 0 0 0 .9-.994V7.205a1 1 0 0 0-.804-.98l-1.291-.259.659-1.187a1 1 0 0 0-.167-1.193l-.492-.491-.491-.492a1 1 0 0 0-1.193-.167l-1.187.66-.062-.31-.196-.982A1 1 0 0 0 8.795 1zm.1 3.05.31-1.55h.77l.116.58.196.981a1 1 0 0 0 1.467.678l1.456-.809.225.225.225.225-.81 1.456a1 1 0 0 0 .679 1.467l1.561.312v.706l-1.464.147a1 1 0 0 0-.795 1.442l.846 1.692-.467.468-1.451-.806a1 1 0 0 0-1.47.693L8.417 13.5h-.834l-.282-1.543a1 1 0 0 0-1.47-.694l-.89.495-.577.321-.454-.471.849-1.698a1 1 0 0 0-.795-1.442L2.5 8.32v-.706l.58-.116.981-.196-.147-.736.147.736a1 1 0 0 0 .678-1.467l-.801-1.442.52-.493 1.353.81a1 1 0 0 0 1.494-.661M7.5 8a.5.5 0 1 1 1 0 .5.5 0 0 1-1 0M8 6a2 2 0 1 0 0 4 2 2 0 0 0 0-4" clip-rule="evenodd"/></svg>
